X:1
T: Exeter Ladies
N:
C:
S: Play  3  times
A:
O:
R:
M:6/8
K:Am
I:speed 150
%W: A1
% voice 1 (1 lines, 41 notes)
K:Am
M:6/8
L:1/16
e2 |c4 B2 c d e2 A2 ^G4 A2 B3 c B2 c3 d e2 c3 B A2 ^G6 E4 e2 |c4 B2 c d e2 A2 ^G4 A2 B3 c B2 c3 d e2 c3 B A2 A6A4 e2 |
%W: A2
% voice 1 (1 lines, 40 notes)
c4 B2 c d e2 A2 ^G4 A2 B3 c B2 c3 d e2 c3 B A2 ^G6 E4 e2 |c4 B2 c d e2 A2 ^G4 A2 B3 c B2 c3 d e2 c3 B A2 A6A4 g2 |
%W: B1
% voice 1 (1 lines, 43 notes)
e4 d2 e2 g2 c2 B4 c2 d2 e2 f2 e2 a2 g2 e3 d c2 c6c3 d e f |g3 f e2 d2 B2 c2 A2 c2 B A ^G2 E2 e2 A B c2 A2 B4 ^G2 A6A4 g2 |
%W: B2
% voice 1 (1 lines, 42 notes)
e4 d2 e2 g2 c2 B4 c2 d2 e2 f2 e2 a2 g2 e3 d c2 c6c3 d e f |g3 f e2 d2 B2 c2 A2 c2 B A ^G2 E2 e2 A B c2 A2 B4 ^G2 A6A4 ||
